X:1
T:Title
%%score { ( 1 4 ) | ( 2 3 ) }
L:1/8
Q:1/4=100
M:6/8
K:Ab
V:1 treble nm="Grand Piano"
V:4 treble 
V:2 bass 
V:3 bass 
V:1
 [Ec]2 [Ec] [Ec][DB][CA] | [FA]3 [DF]2 [Fd] | B2 B BAB | [Ec]6 | [Ec]2 [Ec] [Ec][DB][CA] | %5
w: Charles~Edward~Pollock * * * *|||||
 [FA]3 F3 | EAA c2 B | [CA]6 | B2 B BAB | c3 e3 | ccc [Ec][DB][CA] | B3- B2 E | [Ec]2 [Ec] cB[EA] | %13
w: ||||||||
 [FA]3 F2 F | E2 A c2 B | [CA]6 |] %16
w: |||
V:2
 [A,,A,]2 [A,,A,] [A,,A,][A,,A,][A,,A,] | [D,A,]3 [D,A,]2 [D,A,] | %2
 [E,G,E]2 [E,G,E] [E,E]-[E,F,E][E,G,E] | [A,,A,]6 | [A,,A,]2 [A,,A,] [A,,A,][A,,A,][A,,A,] | %5
 [D,A,]3 [D,A,D]3 | [E,A,C][E,A,C][E,A,C] [E,A,E]2 [E,G,D] | [A,,A,]6 | %8
 [E,G,E]2 [E,G,E] [E,G,E][E,F,E][E,G,E] | [A,E]3 [A,CA]3 | %10
 [A,E][A,E][A,E][K:bass] [A,,A,]2 [A,,A,] | [E,G,E]3- [E,G,E]2 [E,G,] | %12
 [A,,A,]2 [A,,A,] [A,,A,][B,,G,][C,A,] | [D,A,]3 [D,A,D]2 [D,A,D] | %14
 [E,A,C]2 [E,A,C] [E,A,E]2 [E,G,D] | [A,,A,]6 |] %16
V:3
 x6 | x6 | z3 .G,3 | x6 | x6 | x6 | x6 | x6 | x6 | x6 | x3[K:bass] x3 | x6 | x6 | x6 | x6 | x6 |] %16
V:4
 x6 | x6 | x6 | x6 | x6 | x6 | x6 | x6 | x6 | x6 | x6 | x6 | z3 .E3 | x6 | x6 | x6 |] %16

